X: 1
T: The Bunch Of Green Rushes
R: reel
M: 4/4
L: 1/8
K: Dmix
d|:cAGA ~=F3d|cAGc Ad ~d2|cAGA =F2eg|^fdec Ad~d2:|
|:Ad ~d2 cAGA|~=FGAc {d}cAG2|AddA cAGA|1 cdeg {a}gedc:|2 cdeg {a}gece||
|d2^fd adfd|c2ec gcec|d2fd adfd|cAGc Addc|
|d2fd adfd|c2ec gceg|gf (3gfe fedc|dcAG Add||

